X:149
T: Der kleine Husar (2-40), S. 108
N: K1124
O: Luxemburg
S: KINTZELE, Guillaume: An der Ucht, Bd. 2, Luxemburg 1927]
R: Standesunterschied, Scherzlied]
M: 6/8
L: 1/8
K: F
C | FFFAGF | GGGBA
G | ccccBA | G3z2
G | ddddcd | cccA2
c | ccBc2B | A2Bc2
c | ddddcd | cccA2
c | ccBc2B | A3z2

@@@ Tune index: 8203
